svg/logos/rbc_outline.svg

<?xml version="1.0" encoding="UTF-8" standalone="no"?>
<!-- Generator: Adobe Illustrator 14.0.0, SVG Export Plug-In . SVG Version: 6.00 Build 43363)  -->

<svg
   xmlns:dc="http://purl.org/dc/elements/1.1/"
   xmlns:cc="http://creativecommons.org/ns#"
   xmlns:rdf="http://www.w3.org/1999/02/22-rdf-syntax-ns#"
   xmlns:svg="http://www.w3.org/2000/svg"
   xmlns="http://www.w3.org/2000/svg"
   xmlns:sodipodi="http://sodipodi.sourceforge.net/DTD/sodipodi-0.dtd"
   xmlns:inkscape="http://www.inkscape.org/namespaces/inkscape"
   version="1.1"
   id="Layer_1"
   x="0px"
   y="0px"
   width="3953.9062"
   height="5197.6562"
   viewBox="0 0 39.539062 51.976562"
   enable-background="new 0 0 39.5 52"
   xml:space="preserve"
   inkscape:version="0.92.2 5c3e80d, 2017-08-06"
   sodipodi:docname="rbc_outline.svg"><metadata
     id="metadata19"><rdf:RDF><cc:Work
         rdf:about=""><dc:format>image/svg+xml</dc:format><dc:type
           rdf:resource="http://purl.org/dc/dcmitype/StillImage" /><dc:title /></cc:Work></rdf:RDF></metadata><defs
     id="defs17" /><sodipodi:namedview
     pagecolor="#ffffff"
     bordercolor="#666666"
     borderopacity="1"
     objecttolerance="10"
     gridtolerance="10"
     guidetolerance="10"
     inkscape:pageopacity="0"
     inkscape:pageshadow="2"
     inkscape:window-width="1918"
     inkscape:window-height="2136"
     id="namedview15"
     showgrid="false"
     inkscape:zoom="18.153846"
     inkscape:cx="9.1381329"
     inkscape:cy="19.650207"
     inkscape:window-x="3840"
     inkscape:window-y="22"
     inkscape:window-maximized="0"
     inkscape:current-layer="Layer_1" /><path
     d="m 0,0 v 45.611328 c 0,1.717 0.703125,2.715094 2.078125,3.246094 5.343,2.058 11.672359,3.11914 17.693359,3.11914 6.018,0 12.345453,-1.06014 17.689454,-3.11914 1.375,-0.531 2.078124,-1.529094 2.078124,-3.246094 V 0 Z m 8.1582031,1.890625 h 2.9960939 v 2.0214843 h 11.65625 v 2.9863281 c 0,0.504 -0.03012,1.1794689 -0.07813,1.6054689 C 22.696422,8.8159062 22.588,9.3742188 22,9.8242188 c -0.357,0.2699992 -0.893719,0.3788122 -1.761719,0.3828122 -0.285,10e-4 -1.109609,-0.01222 -2.099609,-0.07422 -1.328,-0.085 -1.705766,0.43025 -1.759766,0.90625 -0.011,0.1 -0.01105,0.196063 0.002,0.289063 0.622,-0.48 1.502,-0.819907 2.5,-0.503906 1.758,0.552999 2.259782,0.599859 3.175782,-0.119141 l 0.09375,0.205078 c -0.1,0.153 -0.276203,0.373359 -0.533203,0.568359 h 0.849609 v 4.601563 l 2.644531,-1.585938 h 7.423828 c 0,0 3.135391,1.638204 3.650391,1.908203 0.456,0.24 0.635078,0.530079 0.705078,0.955079 0.061,0.355 -0.03208,0.80575 -0.205078,1.09375 -0.109,0.18 -0.96311,1.576265 -1.412109,2.322265 1.261,1.365 2.113281,3.275344 2.113281,5.402344 0,1.928 -0.71425,4.413719 -3.03125,6.261719 1.02,0.334 1.6745,0.890093 2.1875,1.621093 l -0.720703,2.449219 h -0.375 c 0,-2.042 -1.872985,-2.601562 -3.833985,-2.601562 h -6.130859 c 0.198,1.008 0.287719,2.186781 0.136719,3.300781 H 25.3145 c -0.567,-4.592 -3.161062,-6.863781 -6.789062,-9.300781 v 2.091797 H 18.22075 c -0.965,-2.158 -3.081937,-4.179235 -5.085937,-5.615235 -0.533,-0.38 -1.089719,-0.775062 -1.636719,-1.164062 v 2.251953 h -0.304688 c -0.85,-2.234 -2.3927496,-3.901672 -4.5937496,-5.888672 -2.379,-2.14 -3.3365313,-3.421531 -3.8945313,-4.894531 -0.338,-0.892 -0.4303594,-1.612797 -0.4433593,-2.591797 -0.021,-1.751 0.8647968,-3.3318749 1.9667968,-3.9218749 v 0.8476562 c -0.546,0.723 -0.8280781,1.6412657 -0.8300781,2.5722657 -0.003,0.861 0.2028594,1.816859 0.6308594,2.630859 1.339,2.548 5.8489379,5.676609 8.7109371,7.59961 8.905,5.972 10.682157,7.014593 12.160157,10.183593 0.165,0.353 0.329796,0.825905 0.466797,1.378907 1.286,-0.199 5.953499,-0.910876 6.8125,-1.046876 0.167,-0.027 0.509498,-0.06808 0.6875,-0.08008 0.804999,-0.508 1.431468,-1.15489 1.980468,-1.96289 L 31.4375,30.03125 c -0.177,0.391 -0.350906,0.721375 -0.503906,0.984375 h -0.279297 c 0.094,-0.346 0.175094,-0.688391 0.246094,-1.025391 l -0.875,-0.0625 v -0.1875 l 0.945312,-0.117187 c 0.18,-0.965 0.268156,-1.879422 0.285156,-2.732422 l -4.302734,-0.244141 c -0.021,0.442 -0.02477,0.857141 -0.0098,1.244141 h -0.273437 c -0.094,-0.43 -0.166703,-0.856485 -0.220703,-1.271485 L 25.507778,26.5625 v -0.285157 l 0.896485,-0.04883 c -0.126,-1.139 -0.134844,-2.200281 -0.08984,-3.113281 l -2.511719,-0.113281 c 0.117,0.222 0.240172,0.4425 0.326172,0.6875 0.544,1.517 0.412375,3.294281 0.234375,4.113281 h -0.304687 c -0.045,-0.946 -0.361063,-2.1065 -0.664063,-2.8125 -0.695,-1.639 -2.255094,-3.089531 -4.871093,-4.769531 v 2.09375 H 18.21875 c -0.869,-2.75 -3.034906,-4.280594 -6.253906,-5.933594 C 9.3088434,15.017859 8.4847656,13.374031 8.6347656,10.832031 L 9.53125,11.365234 c 0.229,2.376 2.05575,3.748375 3.96875,3.734375 1.126,-0.01 2.181219,-0.159328 3.199219,-0.361328 1.472,-0.299 2.833703,-0.549437 3.970703,-0.148438 v -1.404296 h -0.894531 c -0.32,0.275 -0.966922,0.594328 -1.919922,0.611328 -1.047,0.018 -3.029297,-0.583828 -3.029297,-2.798828 0,-1.9240006 1.626172,-2.232422 2.951172,-2.232422 0.712,0 1.892969,-0.025875 2.292968,-0.046875 0.295001,-0.02 0.51711,-0.063031 0.66211,-0.2070313 0.15,-0.147 0.194516,-0.2990939 0.228516,-0.4960937 0.042,-0.2390001 0.04297,-0.4815313 0.04297,-0.8945313 v -1.40625 H 14.859375 V 8.1484375 L 12.535156,7.2636718 V 6.6816406 h 1.111328 V 5.7148437 H 9.5039062 V 3.6933594 H 8.0917969 c -0.754,0 -1.6245,0.5316405 -1.6875,1.5566407 -0.057,0.9829998 0.3854375,1.8105468 1.3984375,1.8105468 H 7.9824219 V 8.2382813 H 7.8027344 c -1.775,0 -3.1113282,-1.3316094 -3.1113282,-3.0996095 0,-1.844 1.5677969,-3.2480469 3.4667969,-3.2480468 z m 10.4101559,9.732422 c -0.631781,-0.03356 -1.072234,0.145968 -1.521484,0.574218 0.294,0.14 0.661406,0.216452 1.066406,0.189454 0.587,-0.042 0.949203,-0.392157 1.158203,-0.660157 -0.26075,-0.05725 -0.492531,-0.09233 -0.703125,-0.103515 z m 1.06836,4.496093 c -1.013,-0.018 -2.721875,0.445219 -3.546875,0.574219 0.369,0.251 1.678078,1.090063 2.580078,1.664063 l 2.9375,-1.761719 c -0.578,-0.285 -1.214703,-0.467563 -1.970703,-0.476563 z m 5.9375,0.0625 -5.320313,3.199219 c 0.998,0.694 1.919266,1.445172 2.572266,2.201172 1.424,-2.075 3.929156,-3.396484 6.410156,-3.396484 0.811,0.001 1.755875,0.08837 2.546875,0.359375 l 0.40625,-0.574219 -0.628906,-0.839844 0.103515,-0.1875 1.771485,0.955078 -0.386719,1.171875 c 0.287,0.138 0.549438,0.310969 0.898438,0.542969 L 35.09375,17.730469 32.126953,16.18164 Z m -22.6542971,2.328125 0.515625,0.341797 c -0.191,0.548 -0.2935782,1.317485 -0.2675781,1.771485 0.1559999,2.242 1.9605464,3.755828 7.4355472,7.173828 5.805,3.624 7.428875,5.837031 7.921875,8.707031 h -0.302735 c -1.259,-2.77 -3.819703,-4.318797 -6.720703,-5.966797 v 2.234375 h -0.304687 c -0.844,-1.97 -2.3109848,-3.849937 -4.4589848,-5.460937 -1.9939999,-1.496 -2.8013125,-2.241782 -3.5703124,-3.425782 -0.5090001,-0.783 -0.9238282,-1.762593 -0.9238282,-3.058593 0,-0.793 0.2637813,-1.658407 0.6757813,-2.316407 z m 26.2949221,1.236328 c -0.243,0 -0.485703,0.02969 -0.720703,0.05469 -0.347,0.869 -0.629375,1.746719 -0.859375,2.636719 l 3.03125,-0.167969 c -0.36,-1.243 -0.789625,-2.105719 -1.015625,-2.511719 -0.144,-0.009 -0.290547,-0.01172 -0.435547,-0.01172 z m 2.404297,0.4375 c 0.257,0.691 0.450796,1.357 0.591797,2 L 34.3125,22.068359 c -0.722,-0.832 -1.645359,-1.484765 -2.693359,-1.884766 z m -4.949219,0.140626 c -1.197,0.536 -2.023719,1.264546 -2.761719,2.310546 l 2.449219,-0.126953 c 0.088,-1.087 0.2305,-1.810594 0.3125,-2.183593 z m 0.785156,2.845703 c -0.237,1.057 -0.394797,2.087296 -0.466797,3.029297 L 31.25,25.972656 c -0.036,-0.979 -0.157266,-1.865484 -0.322266,-2.646484 z m 4.962891,0.224609 c 0.111,0.897 0.125406,1.736719 0.06641,2.511719 l 3.441406,-0.179688 c -0.088,-0.782 -0.312531,-1.521218 -0.644531,-2.199219 z m -0.05469,3.558594 c -0.163,1.002 -0.428844,1.872937 -0.714843,2.585937 l 3.839843,-0.480469 c 0.246,-0.599 0.404172,-1.174343 0.451172,-1.902343 z m 0.0293,10.353515 c 2.116,0 3.003906,0.638672 3.003906,0.638672 l -0.49414,1.685547 c 0,0 -0.06575,0.01152 -0.09375,-0.02148 -0.005,-0.004 -0.191828,-0.456828 -0.798828,-0.798828 -0.334,-0.189 -0.824594,-0.419922 -1.808594,-0.419922 -1.762,0 -3.079156,0.982906 -3.035156,4.003906 0.043,3.268 2.197156,3.9375 3.660156,3.9375 1.775,0 2.603516,-0.771484 2.603516,-0.771484 v 1.154296 c -1e-6,1e-6 -0.920719,0.746094 -3.261719,0.746094 -2.519,0 -5.375,-1.032765 -5.375,-5.009765 0,-3.53 2.397609,-5.144532 5.599609,-5.144532 z M 3.9941406,37.458984 h 5.4824219 c 2.6499995,0 3.6660155,0.898797 3.6660155,2.591797 0,1.443 -1.088062,2.237953 -2.539062,2.626953 l 3.623046,4.628906 h -2.83789 L 8.1757812,42.943359 H 7.3457031 V 47.30664 H 5.0703125 v -7.679687 c 0,-0.78 -0.1150469,-1.357328 -0.4980469,-1.736328 -0.149,-0.145 -0.375125,-0.275703 -0.578125,-0.345703 z m 11.2695314,0.002 h 5.253906 c 3.112,0 3.560547,1.159797 3.560547,2.216797 0,1.173 -0.951219,1.949328 -1.949219,2.111328 1.356,0.089 2.680688,0.812672 2.679688,2.513672 0,2.095 -1.732953,3.005859 -4.126953,3.005859 h -4.353516 v -7.863281 c -0.014,-0.692 -0.132281,-1.2115 -0.488281,-1.5625 -0.165,-0.16 -0.417172,-0.28889 -0.576172,-0.33789 z m -7.9179689,0.935547 v 3.65625 h 1.2050781 c 1.3990001,0 2.2695308,-0.717734 2.2695308,-1.927734 0,-1.354 -0.666359,-1.728516 -1.9433589,-1.728516 z m 11.2519529,0 v 3.048828 h 0.994141 c 1.155,0 2.166015,-0.349187 2.166015,-1.617187 0,-1.188 -0.75514,-1.431641 -1.86914,-1.431641 z m 0,3.958985 v 4.023437 h 1.404297 c 1.56,0 2.483375,-0.600797 2.484375,-2.091797 0,-1.379 -0.706828,-1.93164 -2.548828,-1.93164 z"
     id="path3"
     inkscape:connector-curvature="0" /></svg>

<?xml version="1.0" encoding="UTF-8" standalone="no"?>
<!-- Generator: Adobe Illustrator 14.0.0, SVG Export Plug-In . SVG Version: 6.00 Build 43363)  -->

<svg
   xmlns:dc="http://purl.org/dc/elements/1.1/"
   xmlns:cc="http://creativecommons.org/ns#"
   xmlns:rdf="http://www.w3.org/1999/02/22-rdf-syntax-ns#"
   xmlns:svg="http://www.w3.org/2000/svg"
   xmlns="http://www.w3.org/2000/svg"
   xmlns:sodipodi="http://sodipodi.sourceforge.net/DTD/sodipodi-0.dtd"
   xmlns:inkscape="http://www.inkscape.org/namespaces/inkscape"
   version="1.1"
   id="Layer_1"
   x="0px"
   y="0px"
   width="3950px"
   height="5200px"
   viewBox="0 0 39.5 52"
   enable-background="new 0 0 39.5 52"
   xml:space="preserve"
   inkscape:version="0.91 r13725"
   sodipodi:docname="rbc_outline.svg"><metadata
     id="metadata19"><rdf:RDF><cc:Work
         rdf:about=""><dc:format>image/svg+xml</dc:format><dc:type
           rdf:resource="http://purl.org/dc/dcmitype/StillImage" /><dc:title></dc:title></cc:Work></rdf:RDF></metadata><defs
     id="defs17" /><sodipodi:namedview
     pagecolor="#ffffff"
     bordercolor="#666666"
     borderopacity="1"
     objecttolerance="10"
     gridtolerance="10"
     guidetolerance="10"
     inkscape:pageopacity="0"
     inkscape:pageshadow="2"
     inkscape:window-width="1916"
     inkscape:window-height="1041"
     id="namedview15"
     showgrid="false"
     inkscape:zoom="18.153846"
     inkscape:cx="9.1381329"
     inkscape:cy="20.822107"
     inkscape:window-x="0"
     inkscape:window-y="37"
     inkscape:window-maximized="0"
     inkscape:current-layer="Layer_1" /><path
     d="M 0 0.01171875 L 0 45.623047 C 0 47.340047 0.703125 48.338141 2.078125 48.869141 C 7.421125 50.927141 13.750484 51.988281 19.771484 51.988281 C 25.789484 51.988281 32.116937 50.928141 37.460938 48.869141 C 38.835938 48.338141 39.539062 47.340047 39.539062 45.623047 L 39.539062 0.01171875 L 0 0.01171875 z M 8.1582031 1.9023438 L 11.154297 1.9023438 L 11.154297 3.9238281 L 22.810547 3.9238281 L 22.810547 6.9101562 C 22.810547 7.4141562 22.780422 8.089625 22.732422 8.515625 C 22.696422 8.827625 22.588 9.3859375 22 9.8359375 C 21.643 10.105937 21.106281 10.21475 20.238281 10.21875 C 19.953281 10.21975 19.128672 10.206531 18.138672 10.144531 C 16.810672 10.059531 16.432906 10.574781 16.378906 11.050781 C 16.367906 11.150781 16.367859 11.246844 16.380859 11.339844 C 17.002859 10.859844 17.882859 10.519937 18.880859 10.835938 C 20.638859 11.388937 21.140641 11.435797 22.056641 10.716797 L 22.150391 10.921875 C 22.050391 11.074875 21.874188 11.295234 21.617188 11.490234 L 22.466797 11.490234 L 22.466797 16.091797 L 25.111328 14.505859 L 32.535156 14.505859 C 32.535156 14.505859 35.670547 16.144063 36.185547 16.414062 C 36.641547 16.654062 36.820625 16.944141 36.890625 17.369141 C 36.951625 17.724141 36.858547 18.174891 36.685547 18.462891 C 36.576547 18.642891 35.722437 20.039156 35.273438 20.785156 C 36.534438 22.150156 37.386719 24.0605 37.386719 26.1875 C 37.386719 28.1155 36.672469 30.601219 34.355469 32.449219 C 35.375469 32.783219 36.029969 33.339312 36.542969 34.070312 L 35.822266 36.519531 L 35.447266 36.519531 C 35.447266 34.477531 33.574281 33.917969 31.613281 33.917969 L 25.482422 33.917969 C 25.680422 34.925969 25.770141 36.10475 25.619141 37.21875 L 25.314453 37.21875 C 24.747453 32.62675 22.153391 30.354969 18.525391 27.917969 L 18.525391 30.009766 L 18.220703 30.009766 C 17.255703 27.851766 15.138766 25.830531 13.134766 24.394531 C 12.601766 24.014531 12.045047 23.619469 11.498047 23.230469 L 11.498047 25.482422 L 11.193359 25.482422 C 10.343359 23.248422 8.8006094 21.58075 6.5996094 19.59375 C 4.2206094 17.45375 3.2630781 16.172219 2.7050781 14.699219 C 2.3670781 13.807219 2.2747187 13.086422 2.2617188 12.107422 C 2.2407187 10.356422 3.1265156 8.7755469 4.2285156 8.1855469 L 4.2285156 9.0332031 C 3.6825156 9.7562031 3.4004375 10.674469 3.3984375 11.605469 C 3.3954375 12.466469 3.6012969 13.422328 4.0292969 14.236328 C 5.3682969 16.784328 9.8782348 19.912937 12.740234 21.835938 C 21.645234 27.807938 23.422391 28.850531 24.900391 32.019531 C 25.065391 32.372531 25.230187 32.845436 25.367188 33.398438 C 26.653188 33.199438 31.320687 32.487562 32.179688 32.351562 C 32.346688 32.324562 32.689186 32.283484 32.867188 32.271484 C 33.672187 31.763484 34.298656 31.116594 34.847656 30.308594 L 31.4375 30.042969 C 31.2605 30.433969 31.086594 30.764344 30.933594 31.027344 L 30.654297 31.027344 C 30.748297 30.681344 30.829391 30.338953 30.900391 30.001953 L 30.025391 29.939453 L 30.025391 29.751953 L 30.970703 29.634766 C 31.150703 28.669766 31.238859 27.755344 31.255859 26.902344 L 26.953125 26.658203 C 26.932125 27.100203 26.928359 27.515344 26.943359 27.902344 L 26.669922 27.902344 C 26.575922 27.472344 26.503219 27.045859 26.449219 26.630859 L 25.507812 26.574219 L 25.507812 26.289062 L 26.404297 26.240234 C 26.278297 25.101234 26.269453 24.039953 26.314453 23.126953 L 23.802734 23.013672 C 23.919734 23.235672 24.042906 23.456172 24.128906 23.701172 C 24.672906 25.218172 24.541281 26.995453 24.363281 27.814453 L 24.058594 27.814453 C 24.013594 26.868453 23.697531 25.707953 23.394531 25.001953 C 22.699531 23.362953 21.139437 21.912422 18.523438 20.232422 L 18.523438 22.326172 L 18.21875 22.326172 C 17.34975 19.576172 15.183844 18.045578 11.964844 16.392578 C 9.3088434 15.029578 8.4847656 13.38575 8.6347656 10.84375 L 9.53125 11.376953 C 9.76025 13.752953 11.587 15.125328 13.5 15.111328 C 14.626 15.101328 15.681219 14.952 16.699219 14.75 C 18.171219 14.451 19.532922 14.200563 20.669922 14.601562 L 20.669922 13.197266 L 19.775391 13.197266 C 19.455391 13.472266 18.808469 13.791594 17.855469 13.808594 C 16.808469 13.826594 14.826172 13.224766 14.826172 11.009766 C 14.826172 9.0857652 16.452344 8.7773438 17.777344 8.7773438 C 18.489344 8.7773438 19.670313 8.7514686 20.070312 8.7304688 C 20.365313 8.7104688 20.587422 8.6674375 20.732422 8.5234375 C 20.882422 8.3764375 20.926938 8.2243436 20.960938 8.0273438 C 21.002938 7.7883437 21.003906 7.5458125 21.003906 7.1328125 L 21.003906 5.7265625 L 14.859375 5.7265625 L 14.859375 8.1601562 L 12.535156 7.2753906 L 12.535156 6.6933594 L 13.646484 6.6933594 L 13.646484 5.7265625 L 9.5039062 5.7265625 L 9.5039062 3.7050781 L 8.0917969 3.7050781 C 7.3377969 3.7050781 6.4672969 4.2367187 6.4042969 5.2617188 C 6.3472969 6.2447186 6.7897344 7.0722656 7.8027344 7.0722656 L 7.9824219 7.0722656 L 7.9824219 8.25 L 7.8027344 8.25 C 6.0277344 8.25 4.6914062 6.9183906 4.6914062 5.1503906 C 4.6914062 3.3063906 6.2592031 1.9023437 8.1582031 1.9023438 z M 18.568359 11.634766 C 17.936578 11.601203 17.496125 11.780734 17.046875 12.208984 C 17.340875 12.348984 17.708281 12.425436 18.113281 12.398438 C 18.700281 12.356437 19.062484 12.006281 19.271484 11.738281 C 19.010734 11.681031 18.778953 11.645953 18.568359 11.634766 z M 19.636719 16.130859 C 18.623719 16.112859 16.914844 16.576078 16.089844 16.705078 C 16.458844 16.956078 17.767922 17.795141 18.669922 18.369141 L 21.607422 16.607422 C 21.029422 16.322422 20.392719 16.139859 19.636719 16.130859 z M 25.574219 16.193359 L 20.253906 19.392578 C 21.251906 20.086578 22.173172 20.83775 22.826172 21.59375 C 24.250172 19.51875 26.755328 18.197266 29.236328 18.197266 C 30.047328 18.198266 30.992203 18.285641 31.783203 18.556641 L 32.189453 17.982422 L 31.560547 17.142578 L 31.664062 16.955078 L 33.435547 17.910156 L 33.048828 19.082031 C 33.335828 19.220031 33.598266 19.393 33.947266 19.625 L 35.09375 17.742188 L 32.126953 16.193359 L 25.574219 16.193359 z M 2.9199219 18.521484 L 3.4355469 18.863281 C 3.2445469 19.411281 3.1419687 20.180766 3.1679688 20.634766 C 3.3239687 22.876766 5.1285152 24.390594 10.603516 27.808594 C 16.408516 31.432594 18.032391 33.645625 18.525391 36.515625 L 18.222656 36.515625 C 16.963656 33.745625 14.402953 32.196828 11.501953 30.548828 L 11.501953 32.783203 L 11.197266 32.783203 C 10.353266 30.813203 8.8862812 28.933266 6.7382812 27.322266 C 4.7442813 25.826266 3.9369687 25.080484 3.1679688 23.896484 C 2.6589687 23.113484 2.2441406 22.133891 2.2441406 20.837891 C 2.2441406 20.044891 2.5079219 19.179484 2.9199219 18.521484 z M 29.214844 19.757812 C 28.971844 19.757812 28.729141 19.7875 28.494141 19.8125 C 28.147141 20.6815 27.864766 21.559219 27.634766 22.449219 L 30.666016 22.28125 C 30.306016 21.03825 29.876391 20.175531 29.650391 19.769531 C 29.506391 19.760531 29.359844 19.757812 29.214844 19.757812 z M 31.619141 20.195312 C 31.876141 20.886312 32.069937 21.552312 32.210938 22.195312 L 34.3125 22.080078 C 33.5905 21.248078 32.667141 20.595313 31.619141 20.195312 z M 26.669922 20.335938 C 25.472922 20.871938 24.646203 21.600484 23.908203 22.646484 L 26.357422 22.519531 C 26.445422 21.432531 26.587922 20.708937 26.669922 20.335938 z M 27.455078 23.181641 C 27.218078 24.238641 27.060281 25.268937 26.988281 26.210938 L 31.25 25.984375 C 31.214 25.005375 31.092734 24.118891 30.927734 23.337891 L 27.455078 23.181641 z M 32.417969 23.40625 C 32.528969 24.30325 32.543375 25.142969 32.484375 25.917969 L 35.925781 25.738281 C 35.837781 24.956281 35.61325 24.217063 35.28125 23.539062 L 32.417969 23.40625 z M 32.363281 26.964844 C 32.200281 27.966844 31.934437 28.837781 31.648438 29.550781 L 35.488281 29.070312 C 35.734281 28.471312 35.892453 27.895969 35.939453 27.167969 L 32.363281 26.964844 z M 32.392578 37.318359 C 34.508578 37.318359 35.396484 37.957031 35.396484 37.957031 L 34.902344 39.642578 C 34.902344 39.642578 34.836594 39.654094 34.808594 39.621094 C 34.803594 39.617094 34.616766 39.164266 34.009766 38.822266 C 33.675766 38.633266 33.185172 38.402344 32.201172 38.402344 C 30.439172 38.402344 29.122016 39.38525 29.166016 42.40625 C 29.209016 45.67425 31.363172 46.34375 32.826172 46.34375 C 34.601172 46.34375 35.429688 45.572266 35.429688 45.572266 L 35.429688 46.726562 C 35.429687 46.726563 34.508969 47.472656 32.167969 47.472656 C 29.648969 47.472656 26.792969 46.439891 26.792969 42.462891 C 26.792969 38.932891 29.190578 37.318359 32.392578 37.318359 z M 3.9941406 37.470703 L 9.4765625 37.470703 C 12.126562 37.470703 13.142578 38.3695 13.142578 40.0625 C 13.142578 41.5055 12.054516 42.300453 10.603516 42.689453 L 14.226562 47.318359 L 11.388672 47.318359 L 8.1757812 42.955078 L 7.3457031 42.955078 L 7.3457031 47.318359 L 5.0703125 47.318359 L 5.0703125 39.638672 C 5.0703125 38.858672 4.9552656 38.281344 4.5722656 37.902344 C 4.4232656 37.757344 4.1971406 37.626641 3.9941406 37.556641 L 3.9941406 37.470703 z M 15.263672 37.472656 L 20.517578 37.472656 C 23.629578 37.472656 24.078125 38.632453 24.078125 39.689453 C 24.078125 40.862453 23.126906 41.638781 22.128906 41.800781 C 23.484906 41.889781 24.809594 42.613453 24.808594 44.314453 C 24.808594 46.409453 23.075641 47.320312 20.681641 47.320312 L 16.328125 47.320312 L 16.328125 39.457031 C 16.314125 38.765031 16.195844 38.245531 15.839844 37.894531 C 15.674844 37.734531 15.422672 37.605641 15.263672 37.556641 L 15.263672 37.472656 z M 7.3457031 38.408203 L 7.3457031 42.064453 L 8.5507812 42.064453 C 9.9497813 42.064453 10.820312 41.346719 10.820312 40.136719 C 10.820312 38.782719 10.153953 38.408203 8.8769531 38.408203 L 7.3457031 38.408203 z M 18.597656 38.408203 L 18.597656 41.457031 L 19.591797 41.457031 C 20.746797 41.457031 21.757812 41.107844 21.757812 39.839844 C 21.757812 38.651844 21.002672 38.408203 19.888672 38.408203 L 18.597656 38.408203 z M 18.597656 42.367188 L 18.597656 46.390625 L 20.001953 46.390625 C 21.561953 46.390625 22.485328 45.789828 22.486328 44.298828 C 22.486328 42.919828 21.7795 42.367188 19.9375 42.367188 L 18.597656 42.367188 z "
     id="path3" /></svg>
